src/64x64/places/folder-gruvbox-mix-green-sync.svg

<svg xmlns="http://www.w3.org/2000/svg" width="64" height="64" version="1">
 <rect style="opacity:0.2" width="56" height="36" x="4" y="22" rx="2.8" ry="2.8"/>
 <path style="fill:#72761e" d="M 4,46.2 C 4,47.751 5.2488,49 6.8,49 H 57.2 C 58.751,49 60,47.751 60,46.2 V 15.8 C 60,14.249 58.751,13 57.2,13 H 32 C 27.8,13 26.4,7 22.2,7 H 6.8 C 5.2488,7 4,8.2488 4,9.8"/>
 <rect style="opacity:0.2" width="56" height="36" x="4" y="20" rx="2.8" ry="2.8"/>
 <rect style="fill:#dee2b6" width="48" height="22" x="8" y="16" rx="2.8" ry="2.8"/>
 <rect style="fill:#b0b846" width="56" height="36" x="4" y="21" rx="2.8" ry="2.8"/>
 <path style="opacity:0.1;fill:#dee2b6" d="M 6.8008,7 C 5.2496,7 4,8.2496 4,9.8008 V 10.801 C 4,9.2496 5.2496,8 6.8008,8 H 22.199 C 26.399,8 27.8,14 32,14 H 57.199 C 58.75,14 60,15.25 60,16.801 V 15.801 C 60,14.25 58.75,13 57.199,13 H 32 C 27.8,13 26.399,7 22.199,7 Z"/>
 <path style="fill:#3b4439" d="M 32 30 C 30.132468 30.0027 28.312033 30.586321 26.791016 31.669922 L 28.957031 33.835938 C 29.878594 33.290764 30.929258 33.002134 32 33 C 34.972138 33 37.433066 35.163496 37.910156 38 L 36 38 L 39.5 44 L 43 38 L 40.941406 38 C 40.443387 33.500659 36.63212 30 32 30 z M 24.5 34 L 21 40 L 23.058594 40 C 23.556613 44.499341 27.36788 48 32 48 C 33.867532 47.9973 35.687967 47.413679 37.208984 46.330078 L 35.042969 44.164062 C 34.121406 44.709236 33.070742 44.997866 32 45 C 29.027862 45 26.566934 42.836504 26.089844 40 L 28 40 L 24.5 34 z"/>
</svg>

<?xml version="1.0" encoding="UTF-8"?>
<svg width="64" height="64" version="1" xmlns="http://www.w3.org/2000/svg">
 <rect x="4" y="22" width="56" height="36" rx="2.8" ry="2.8" opacity=".2"/>
 <path d="m4 46.2c0 1.551 1.2488 2.8 2.8 2.8h50.4c1.551 0 2.8-1.249 2.8-2.8v-30.4c0-1.551-1.249-2.8-2.8-2.8h-25.2c-4.2 0-5.6-6-9.8-6h-15.4c-1.5512 0-2.8 1.2488-2.8 2.8" fill="#72761e"/>
 <rect x="4" y="20" width="56" height="36" rx="2.8" ry="2.8" opacity=".2"/>
 <rect x="8" y="16" width="48" height="22" rx="2.8" ry="2.8" fill="#dee2b6"/>
 <rect x="4" y="21" width="56" height="36" rx="2.8" ry="2.8" fill="#b0b846"/>
 <path d="m6.8008 7c-1.5512 0-2.8008 1.2496-2.8008 2.8008v1.0002c0-1.5514 1.2496-2.801 2.8008-2.801h15.398c4.2 0 5.601 6 9.801 6h25.199c1.551 0 2.801 1.25 2.801 2.801v-1c0-1.551-1.25-2.801-2.801-2.801h-25.199c-4.2 0-5.601-6-9.801-6z" fill="#dee2b6" opacity=".1"/>
 <path d="m32 30c-1.8675 0.0027-3.688 0.58632-5.209 1.6699l2.166 2.166c0.92156-0.54517 1.9722-0.8338 3.043-0.83594 2.9721 0 5.4331 2.1635 5.9102 5h-1.9102l3.5 6 3.5-6h-2.0586c-0.49802-4.4993-4.3093-8-8.9414-8zm-7.5 4-3.5 6h2.0586c0.49802 4.4993 4.3093 8 8.9414 8 1.8675-0.0027 3.688-0.58632 5.209-1.6699l-2.166-2.166c-0.92156 0.54517-1.9722 0.8338-3.043 0.83594-2.9721 0-5.4331-2.1635-5.9102-5h1.9102l-3.5-6z" fill="#3b4439"/>
</svg>
